X: 1
T:Maggie's Fancy  "CYMRU"
M:C|
L:1/8
Q:80
C:R.Burns
S:Hornpipe
K:HP
|: a3/4g/4|
{fg}f{g}A{GAG}A{gde}d3/4c/4|
{gBd}B{g}G{gGd}G{gde}d3/4B/4|  !
{g}Ad/4{gdedG}d3/4a3/4f/4{g}e3/4d/4|
{gfg}f{g}e{A}ea3/4g/4| |
{fg}f{g}A{GAG}A{gde}d3/4c/4|  !
{gBd}B{g}G{Gdc}d{gcd}c3/4B/4|
{g}Ac/4{gcecG}c3/4a3/4f/4{g}e/4a3/4|
{fg}fd{gdc}d:| |:  !
{g}f3/4g/4|
{ag}aA{GAG}A{g}e3/4f/4|
{gf}g{a}B{GdG}B{gde}d3/4B/4|  !
{g}Ad/4{gdedG}d3/4a3/4f/4{g}e3/4d/4|
{gfg}f{g}e{A}e{g}f3/4g/4| |
{ag}aA{GAG}A{g}e3/4f/4|  !
{gf}g{a}B{Gdc}d{gcd}c3/4B/4|
{g}Ac/4{gcecG}c3/4a3/4f/4{g}e/4g3/4|
{fg}fd{gdc}d:| |:  !
{gcd}c3/4B/4|
{g}A{GAG}A{g}Ad/4{gdedG}d3/4|
{gBd}B{e}G{g}GB/4{gBeBG}B3/4|  !
{g}Ad/4{gdedG}d3/4a3/4f/4{g}e/4d3/4|
{gfg}f{g}e{A}e{gcd}c3/4B/4| |
{g}A{GAG}A{g}fd/4{gdedG}d3/4|  !
{gBd}B{e}G{g}dB/4{gBeBG}B3/4|
{g}Ac/4{gcecG}c3/4a3/4f/4{g}e/4a3/4|
{fg}fd{gdc}d:| |:  !
{gcd}c3/4B/4|
ad/4{gdedG}d3/4{g}A3/4f/4{gde}d3/4c/4|
{gBd}B{e}G{gGd}G{g}e3/4d/4|  !
{gcecG}c/4{g}c3/4B{g}A3/4f/4{g}e/2c/4|
{Gdc}da{g}af3/4g/4| |
ad/4{gdedG}d3/4{g}A3/4f/4{gde}d3/4c/4|  !
{g}B/4{d}G3/4{gde}d3/4B/4{G}A{gcd}c3/4B/4|
{g}Ac/4{gcecG}c3/4a3/4f/4{g}e/4a3/4|
{fg}fd{gdc}d:|  !
